X:47
T:Where Lilies Bloom
Z: id:dc-polka-39
M:2/4
L:1/8
K:D Major
z|DF/A/ BA|d2-d>c|BA Bc|BA FA|!
DF/A/ BA|d2-d>c|BA Bc|ed d:|!
e|f2 e2|d2-d>c|BA Bc|BA FA|!
f2 e2|d2-d>c|BA Bc|ed d:|!

